X: 577
T: Pingding xiaodiao
%%abc-version 2.0
%%abcx-abcm2ps-target-version 5.9.1 (29 Sep 2008)
%%abc-creator hum2abc beta
%%abcx-conversion-date 2013/10/02 07:52:30
%%abc-edited-by Helmut Schaffrath
%%humdrum-veritas 2772409126
%%humdrum-veritas-data 633480696
%%continueall 1
%%barnumbers 0
L: 1/16
M: 2/4
K: G
d2 d2 g2 e d [I:setbarnb 1]| 
d2A6 | 
g2 d2 c2 B A | 
G8 | 
G2> A2d4 | 
B d B A G2 d2 | 
F2> E2 D2 G2 | 
E G E D C D E2 | 
D8 |]  



